X:1
T:Title
%%score { 1 | 2 }
L:1/8
M:2/4
K:Eb
V:1 treble nm="Grand Piano"
V:2 bass 
V:1
 z2 z[Q:1/4=96] E | GG [FB][FB] | [Ee]3 [EAc] | [EGB][B,EG] [B,EG][G,E] | [B,DF]3 [B,DF] | %5
 [B,FB][B,FB] cc | d3 d | [Gc][Ge] [Fd][Ec] |[M:3/8] [DB]3 |[M:1/8] [EB] | %10
[M:2/4] [EG][GB] [Ge][Bd] | [Ac]3 [Ac] | [GB][EG] [Ge][EG] | [DF]3 [DF] | GG AB | c3 e | %16
[M:5/8] ee[Fe]3/2[Ad]3/2 |[M:9/16] [Ge]4- [Ge]/ |] %18
V:2
 z2 z [E,G,] | [E,B,E][E,B,E] [D,B,][D,F,] | [C,G,]3 A,, | E,E, E,E, | B,,3 B,, | %5
 D,D,[K:treble] [F,=A,F][F,A,F] | [B,F]3 [B,F] | [E,B,][E,B,] [F,B,][F,=A,] |[M:3/8] [B,,B,]3 | %9
[M:1/8] [E,G,] |[M:2/4] [E,B,][E,B,] [E,B,][G,E] | [A,E]3 [A,E] | [E,E][E,B,] [E,B,][E,B,] | %13
 [B,,B,]3 [B,,B,] | [E,B,E][E,B,E] [F,B,D][K:treble][G,B,E] | [A,E]3 [=A,C_G] | %16
[M:5/8] [B,G][B,G][K:bass][B,,B,]3/2[B,,B,]3/2 |[M:9/16] [E,B,]4- [E,B,]/ |] %18

